X:1
T:La Matelotte
T:or Masters in this Hall
T:or The Female Sayler
C:arr. Gustav Holst
N:/musdi/070/152
O:from The Oxford Book of Carols; adapted by Laura Conrad
M:12/8
L:1/8
K:F
|:D2 A A2 G  F3 G3 | A2 G F2 E F2 E D2 ^C| D2 A A2 G F3 G3 | A2 G F2 E  D6 :|
f2 e d2 ^c  d3 A3 | f2 e d2 ^c  d3 A2 =c | _B2 G A2 E  F2 D F2 G | A3 =B2 ^c  d3 e3 |
f2 e d2 ^c  d3 A3 | f2 e d2 ^c  d3 A2 =c | _B2 G A2 E  F2 D F2 G | A3 E2 D  D6 |]
